SVG_Azure_Grouped/Management/Azure Advisor.svg

<?xml version="1.0" encoding="UTF-8" standalone="no"?>
<!-- Generated by Microsoft Visio, SVG Export Azure Advisor.svg Page-1 -->

<svg
   xmlns:dc="http://purl.org/dc/elements/1.1/"
   xmlns:cc="http://creativecommons.org/ns#"
   xmlns:rdf="http://www.w3.org/1999/02/22-rdf-syntax-ns#"
   xmlns:svg="http://www.w3.org/2000/svg"
   xmlns="http://www.w3.org/2000/svg"
   xmlns:sodipodi="http://sodipodi.sourceforge.net/DTD/sodipodi-0.dtd"
   xmlns:inkscape="http://www.inkscape.org/namespaces/inkscape"
   width="0.7873624in"
   height="0.74860787in"
   viewBox="0 0 56.690001 53.899556"
   xml:space="preserve"
   class="st6"
   version="1.1"
   id="svg53"
   sodipodi:docname="Azure Advisor.svg"
   style="font-size:12px;overflow:visible;color-interpolation-filters:sRGB;fill:none;fill-rule:evenodd;stroke-linecap:square;stroke-miterlimit:3"
   inkscape:version="0.92.5 (2060ec1f9f, 2020-04-08)"><metadata
   id="metadata57"><rdf:RDF><cc:Work
       rdf:about=""><dc:format>image/svg+xml</dc:format><dc:type
         rdf:resource="http://purl.org/dc/dcmitype/StillImage" /></cc:Work></rdf:RDF></metadata><sodipodi:namedview
   pagecolor="#ffffff"
   bordercolor="#666666"
   borderopacity="1"
   objecttolerance="10"
   gridtolerance="10"
   guidetolerance="10"
   inkscape:pageopacity="0"
   inkscape:pageshadow="2"
   inkscape:window-width="640"
   inkscape:window-height="480"
   id="namedview55"
   showgrid="false"
   inkscape:zoom="1.4519803"
   inkscape:cx="37.795396"
   inkscape:cy="35.932454"
   inkscape:window-x="0"
   inkscape:window-y="0"
   inkscape:window-maximized="0"
   inkscape:current-layer="svg53" />
	<style
   type="text/css"
   id="style2">
	<![CDATA[
		.st1 {fill:url(#grad0-6);stroke:none;stroke-linecap:butt;stroke-width:34}
		.st2 {fill:#37c2b1;stroke:none;stroke-linecap:butt;stroke-width:34}
		.st3 {fill:#42e8ca;stroke:none;stroke-linecap:butt;stroke-width:34}
		.st4 {fill:#005ba1;stroke:none;stroke-linecap:butt;stroke-width:34}
		.st5 {fill:#ffca00;stroke:none;stroke-linecap:butt;stroke-width:34}
		.st6 {fill:none;fill-rule:evenodd;font-size:12px;overflow:visible;stroke-linecap:square;stroke-miterlimit:3}
	]]>
	</style>

	<defs
   id="Patterns_And_Gradients">
		<linearGradient
   id="grad0-6"
   x1="0"
   y1="96.313602"
   x2="47.915776"
   y2="96.313602"
   gradientTransform="scale(1.1831176,0.84522449)"
   gradientUnits="userSpaceOnUse">
			<stop
   offset="0.22"
   stop-color="#32d4f5"
   stop-opacity="1"
   id="stop4" />
			<stop
   offset="0.43"
   stop-color="#31d1f2"
   stop-opacity="1"
   id="stop6" />
			<stop
   offset="0.6"
   stop-color="#2dc6e9"
   stop-opacity="1"
   id="stop8" />
			<stop
   offset="0.76"
   stop-color="#28b5d9"
   stop-opacity="1"
   id="stop10" />
			<stop
   offset="0.91"
   stop-color="#1f9dc4"
   stop-opacity="1"
   id="stop12" />
			<stop
   offset="1"
   stop-color="#198ab3"
   stop-opacity="1"
   id="stop14" />
		</linearGradient>
	</defs>
	<g
   id="g51"
   transform="translate(-34,-34.000757)">
		<title
   id="title18">Page-1</title>
		<g
   id="group13041-1"
   transform="translate(34,-34.0403)">
			<title
   id="title20">Azure Advisor.13041</title>
			<g
   id="group13042-2">
				<title
   id="title22">Sheet.13042</title>
				<g
   id="shape13043-3"
   transform="translate(0,-13.3657)">
					<title
   id="title24">Sheet.13043</title>
					<path
   d="M 56.69,109.22 A 12.8242,12.687 -180 0 0 45.63,96.9 16.1551,15.9824 -180 0 0 29.15,81.41 16.6548,16.4767 -180 0 0 13.32,92.25 15.2558,15.0926 -180 0 0 0,106.95 a 15.5223,15.3562 -180 0 0 15.96,14.93 9.99288,9.886 -180 0 0 1.39,0 h 25.82 a 2.13181,2.10901 -180 0 0 0.67,0 12.9907,12.8518 -180 0 0 12.85,-12.66 z"
   class="st1"
   id="path26"
   inkscape:connector-curvature="0"
   style="fill:url(#grad0-6);stroke:none;stroke-width:34;stroke-linecap:butt" />
				</g>
				<g
   id="shape13044-7"
   transform="translate(34.642)">
					<title
   id="title29">Sheet.13044</title>
					<path
   d="M 12.16,114.64 5.5,121.69 A 0.866049,0.856786 0 0 1 4.03438,121.22865 L 0,101.79 a 0.866049,0.856786 0 0 1 0.399715,-0.79088 L 4.8,99.22 a 0.866049,0.856786 0 0 1 1.09922,0.428393 L 12.39,113.82 a 0.79943,0.79088 0 0 1 -0.233167,0.82383 z"
   class="st2"
   id="path31"
   inkscape:connector-curvature="0"
   style="fill:#37c2b1;stroke:none;stroke-width:34;stroke-linecap:butt" />
				</g>
				<g
   id="shape13045-9"
   transform="translate(24.7078)">
					<title
   id="title34">Sheet.13045</title>
					<path
   d="M 0.34,114.64 7,121.69 a 0.866049,0.856786 -180 0 0 1.46562,-0.46135 L 12.5,101.79 a 0.866049,0.856786 -180 0 0 -0.499644,-0.92269 L 7.6,99.09 A 0.866049,0.856786 -180 0 0 6.50078,99.518393 L 0.01,113.68 a 0.79943,0.79088 -180 0 0 0.333096,0.95565 z"
   class="st3"
   id="path36"
   inkscape:connector-curvature="0"
   style="fill:#42e8ca;stroke:none;stroke-width:34;stroke-linecap:butt" />
				</g>
				<g
   id="shape13046-11"
   transform="translate(24.9786,-16.5551)">
					<title
   id="title39">Sheet.13046</title>
					<path
   d="m 12,101.08 0.86,-0.73 a 1.36569,1.35109 0 0 1 1.9,0.17 1.23245,1.21927 0 0 1 0.23,0.39 l 0.4,1.06 a 1.399,1.38404 -180 0 0 1.5,0.85 l 1.1,-0.2 a 1.36569,1.35109 0 0 1 1.57,1.09 1.09922,1.08746 0 0 1 0,0.46 l -0.2,1.09 a 1.399,1.38404 -180 0 0 0.86,1.48 l 1.07,0.37 a 1.399,1.38404 0 0 1 0.8,1.74 2.49822,2.4715 0 0 1 -0.24,0.4 l -0.73,0.82 a 1.399,1.38404 -180 0 0 0,1.72 l 0.73,0.85 a 1.33238,1.31813 0 0 1 -0.2,1.88 1.36569,1.35109 0 0 1 -0.36,0.23 l -1.07,0.4 a 1.33238,1.31813 -180 0 0 -0.86,1.48 l 0.2,1.09 a 1.29907,1.28518 0 0 1 -1.1,1.51 1.09922,1.08746 0 0 1 -0.47,0 h -1.1 a 1.33238,1.31813 -180 0 0 -1.5,0.86 l -0.4,1.02 a 1.33238,1.31813 0 0 1 -1.73,0.79 1.23245,1.21927 0 0 1 -0.4,-0.23 l -0.83,-0.82 a 1.33238,1.31813 -180 0 0 -1.73,0 l -0.87,0.69 a 1.33238,1.31813 0 0 1 -1.9,-0.17 0.79943,0.79088 0 0 1 -0.233167,-0.39544 L 6.9,119.96 A 1.29907,1.28518 -180 0 0 5.4,119.1 l -1.1,0.2 a 1.36569,1.35109 0 0 1 -1.57,-1.12 0.965978,0.955646 0 0 1 0,-0.42839 L 2.93,116.66 a 1.33238,1.31813 -180 0 0 -0.86,-1.48 l -1.03,-0.4 a 1.399,1.38404 0 0 1 -0.97,-1.64 2.49822,2.4715 0 0 1 0.23,-0.4 l 0.74,-0.86 a 1.399,1.38404 -180 0 0 0,-1.71 L 0.3,109.35 a 1.36569,1.35109 0 0 1 0.2,-1.91 0.76612,0.757926 0 0 1 0.399715,-0.19772 L 1.94,106.84 a 1.399,1.38404 -180 0 0 0.86,-1.48 l -0.07,-0.99 a 1.36569,1.35109 0 0 1 1.1,-1.55 H 4.3 l 1.1,0.2 a 1.36569,1.35109 -180 0 0 1.5,-0.86 l 0.4,-1.08 a 1.36569,1.35109 0 0 1 1.73,-0.8 l 0.4,0.24 0.87,0.72 a 1.36569,1.35109 -180 0 0 1.7,-0.16 z"
   class="st4"
   id="path41"
   inkscape:connector-curvature="0"
   style="fill:#005ba1;stroke:none;stroke-width:34;stroke-linecap:butt" />
				</g>
				<g
   id="shape13047-13"
   transform="translate(28.2798,-19.6527)">
					<title
   id="title44">Sheet.13047</title>
					<ellipse
   cx="7.8610601"
   cy="114.125"
   rx="7.8610601"
   ry="7.7769799"
   class="st5"
   id="ellipse46"
   style="fill:#ffca00;stroke:none;stroke-width:34;stroke-linecap:butt" />
				</g>
			</g>
		</g>
	</g>
</svg>

<?xml version="1.0" encoding="UTF-8" standalone="no"?>
<!DOCTYPE svg PUBLIC "-//W3C//DTD SVG 1.1//EN" "http://www.w3.org/Graphics/SVG/1.1/DTD/svg11.dtd">
<!-- Generated by Microsoft Visio, SVG Export Azure Advisor.svg Page-1 -->
<svg xmlns="http://www.w3.org/2000/svg" xmlns:xlink="http://www.w3.org/1999/xlink" xmlns:ev="http://www.w3.org/2001/xml-events"
		width="1.73185in" height="1.69309in" viewBox="0 0 124.693 121.902" xml:space="preserve" color-interpolation-filters="sRGB"
		class="st6">
	<style type="text/css">
	<![CDATA[
		.st1 {fill:url(#grad0-6);stroke:none;stroke-linecap:butt;stroke-width:34}
		.st2 {fill:#37c2b1;stroke:none;stroke-linecap:butt;stroke-width:34}
		.st3 {fill:#42e8ca;stroke:none;stroke-linecap:butt;stroke-width:34}
		.st4 {fill:#005ba1;stroke:none;stroke-linecap:butt;stroke-width:34}
		.st5 {fill:#ffca00;stroke:none;stroke-linecap:butt;stroke-width:34}
		.st6 {fill:none;fill-rule:evenodd;font-size:12px;overflow:visible;stroke-linecap:square;stroke-miterlimit:3}
	]]>
	</style>

	<defs id="Patterns_And_Gradients">
		<linearGradient id="grad0-6" x1="0" y1="0" x2="1" y2="0" gradientTransform="rotate(90 0.5 0.5)">
			<stop offset="0.22" stop-color="#32d4f5" stop-opacity="1"/>
			<stop offset="0.43" stop-color="#31d1f2" stop-opacity="1"/>
			<stop offset="0.6" stop-color="#2dc6e9" stop-opacity="1"/>
			<stop offset="0.76" stop-color="#28b5d9" stop-opacity="1"/>
			<stop offset="0.91" stop-color="#1f9dc4" stop-opacity="1"/>
			<stop offset="1" stop-color="#198ab3" stop-opacity="1"/>
		</linearGradient>
	</defs>
	<g>
		<title>Page-1</title>
		<g id="group12748-1" transform="translate(34,-34.0403)">
			<title>Azure Advisor.12748</title>
			<g id="group12749-2">
				<title>Sheet.12749</title>
				<g id="shape12750-3" transform="translate(0,-13.3657)">
					<title>Sheet.12750</title>
					<path d="M56.69 109.22 A12.8242 12.687 -180 0 0 45.63 96.9 A16.1551 15.9824 -180 0 0 29.15 81.41 A16.6548 16.4767
								 -180 0 0 13.32 92.25 A15.2558 15.0926 -180 0 0 -0 106.95 A15.5223 15.3562 -180 0 0 15.96 121.88
								 A9.99288 9.886 -180 0 0 17.35 121.88 L43.17 121.88 A2.13181 2.10901 -180 0 0 43.84 121.88 A12.9907
								 12.8518 -180 0 0 56.69 109.22 Z" class="st1"/>
				</g>
				<g id="shape12751-7" transform="translate(34.642,0)">
					<title>Sheet.12751</title>
					<path d="M12.16 114.64 L5.5 121.69 a0.866049 0.856786 0 0 1 -1.46562 -0.461346 L0 101.79 a0.866049 0.856786 0
								 0 1 0.399715 -0.79088 L4.8 99.22 a0.866049 0.856786 0 0 1 1.09922 0.428393 L12.39 113.82 a0.79943
								 0.79088 0 0 1 -0.233167 0.823833 Z" class="st2"/>
				</g>
				<g id="shape12752-9" transform="translate(24.7078,0)">
					<title>Sheet.12752</title>
					<path d="M0.34 114.64 L7 121.69 a0.866049 0.856786 -180 0 0 1.46562 -0.461346 L12.5 101.79 a0.866049 0.856786
								 -180 0 0 -0.499644 -0.922693 L7.6 99.09 a0.866049 0.856786 -180 0 0 -1.09922 0.428393 L0.01 113.68
								 a0.79943 0.79088 -180 0 0 0.333096 0.955646 Z" class="st3"/>
				</g>
				<g id="shape12753-11" transform="translate(24.9786,-16.5551)">
					<title>Sheet.12753</title>
					<path d="M12 101.08 L12.86 100.35 A1.36569 1.35109 0 0 1 14.76 100.52 A1.23245 1.21927 0 0 1 14.99 100.91 L15.39
								 101.97 A1.399 1.38404 -180 0 0 16.89 102.82 L17.99 102.62 A1.36569 1.35109 0 0 1 19.56 103.71 A1.09922
								 1.08746 0 0 1 19.56 104.17 L19.36 105.26 A1.399 1.38404 -180 0 0 20.22 106.74 L21.29 107.11 A1.399
								 1.38404 0 0 1 22.09 108.85 A2.49822 2.4715 0 0 1 21.85 109.25 L21.12 110.07 A1.399 1.38404 -180
								 0 0 21.12 111.79 L21.85 112.64 A1.33238 1.31813 0 0 1 21.65 114.52 A1.36569 1.35109 0 0 1 21.29
								 114.75 L20.22 115.15 A1.33238 1.31813 -180 0 0 19.36 116.63 L19.56 117.72 A1.29907 1.28518 0 0 1
								 18.46 119.23 A1.09922 1.08746 0 0 1 17.99 119.23 L16.89 119.23 A1.33238 1.31813 -180 0 0 15.39 120.09
								 L14.99 121.11 A1.33238 1.31813 0 0 1 13.26 121.9 A1.23245 1.21927 0 0 1 12.86 121.67 L12.03 120.85
								 A1.33238 1.31813 -180 0 0 10.3 120.85 L9.43 121.54 A1.33238 1.31813 0 0 1 7.53 121.37 a0.79943 0.79088
								 0 0 1 -0.233167 -0.39544 L6.9 119.96 A1.29907 1.28518 -180 0 0 5.4 119.1 L4.3 119.3 A1.36569 1.35109
								 0 0 1 2.73 118.18 a0.965978 0.955646 0 0 1 -2.22045E-15 -0.428393 L2.93 116.66 A1.33238 1.31813
								 -180 0 0 2.07 115.18 L1.04 114.78 A1.399 1.38404 0 0 1 0.07 113.14 A2.49822 2.4715 0 0 1 0.3 112.74
								 L1.04 111.88 A1.399 1.38404 -180 0 0 1.04 110.17 L0.3 109.35 A1.36569 1.35109 0 0 1 0.5 107.44 a0.76612
								 0.757926 0 0 1 0.399715 -0.19772 L1.94 106.84 A1.399 1.38404 -180 0 0 2.8 105.36 L2.73 104.37 A1.36569
								 1.35109 0 0 1 3.83 102.82 L4.3 102.82 L5.4 103.02 A1.36569 1.35109 -180 0 0 6.9 102.16 L7.3 101.08
								 A1.36569 1.35109 0 0 1 9.03 100.28 L9.43 100.52 L10.3 101.24 A1.36569 1.35109 -180 0 0 12 101.08
								 Z" class="st4"/>
				</g>
				<g id="shape12754-13" transform="translate(28.2798,-19.6527)">
					<title>Sheet.12754</title>
					<ellipse cx="7.86106" cy="114.125" rx="7.86106" ry="7.77698" class="st5"/>
				</g>
			</g>
		</g>
	</g>
</svg>
